!!!OTL: Schifferlied.
!!!OTL-incipit: DORT IN DEN WEIDEN STHET EIN HAUS
!!!ARE: Europa, Mitteleuropa, Deutschland, Niederrhein
!!!SCT: Z1252
!!!TXL: @@DE
!!!YEM: Copyright 1995, estate of Helmut Schaffrath.
**kern	**text
*ICvox	*
*M2/4	*
*k[b-e-]	*
*g:	*
!LO:TX:a:t=Vom Niederrhein.	!
{8d	Dort
=1	=1
8g	in
8a	den
8b-	Weiden
8cc	.
=2	=2
8dd	ſteht
8ee-	ein
4dd}	Haus,
=3	=3
{8ee-	ſteht
8ff	ein
4ee-	Haus,
=4	=4
8dd	ſteht
8ee-	ein
8.dd}	Haus,
{16dd	da
=5	=5
8g	ſchaut
8a	die
8b-	Magd
8cc	ʒum
=6	=6
8dd	Fenſter
8ee-	.
8.dd}	'naus,
{16d	ʒum
=7	=7
4b-/	Fen-
4a	-ſter
=8	=8
4g	'naus!
8r}	.
{16gL	Sie
16aJ	.
=9	=9
8b-	ſchaut
8cc	ſtromauf,
8dd	.
8ee-	ſie
=10	=10
8ff	ſchaut
8gg	ſtromab,
8.ff}	.
{16ff	iſt
=11	=11
8a	noch
8b-/	nicht
8cc	da
8dd	mein
=12	=12
8ee-	Herʒensknab,
8ff	.
8.ee-}	.
{16ee-	der
=13	=13
8g	ſchönſte
8a	.
8.b-	Burſch
16cc	am
=14	=14
8dd	ganʒen
8ee-	.
8.dd}	Rhein,
{16d	den
=15	=15
4b-/	nenn'
4a	ich
=16	=16
4g	mein!
8r}	.
==	==
!!!AGN: Liebes - Lied
!!!ONB: ESAC (Essen Associative Code) Database: ZUCCAL
!!!AMT: simple duple
!!!AIN: vox
!!!EED: Helmut Schaffrath
!!!EEV: 1.0
!!!GTL: V. Lieder der Minne.
!!!URL-scan: https://www.digitale-sammlungen.de/de/view/bsb11160573?page=467
!!!ENC: Anna Maria Matuszewska
!!!EEV: 2025/02/06
*-	*-
